newicons/fr_legends.svg

<?xml version="1.0" encoding="UTF-8" standalone="no"?>
<svg
   viewBox="0 0 48 48"
   version="1.1"
   id="svg1"
   xml:space="preserve"
   xmlns="http://www.w3.org/2000/svg"
   xmlns:svg="http://www.w3.org/2000/svg"><defs
     id="defs1"><style
       id="style1">.a{fill:none;stroke:#fff;stroke-linecap:round;stroke-linejoin:round;}</style></defs><path
     class="a"
     d="m 40.5,5.5 h -33 a 2,2 0 0 0 -2,2 v 33 a 2,2 0 0 0 2,2 h 33 a 2,2 0 0 0 2,-2 v -33 a 2,2 0 0 0 -2,-2 z"
     id="path1"
     style="display:inline" /><path
     style="fill:none;stroke:#ffffff;stroke-linecap:round;stroke-linejoin:round;stroke-dashoffset:0.5"
     d="M 40.671183,28.464825 C 40.961437,23.388305 40.5,5.5 24.762897,8.229286 18.513891,9.3130513 12.966648,13.07298 13.181865,19.810318 c 0.129278,4.047037 1.196689,7.901176 3.101616,11.806149"
     id="path2" /><path
     style="fill:none;stroke:#ffffff;stroke-linecap:round;stroke-linejoin:round;stroke-dashoffset:0.5"
     d="m 40.671183,28.464825 c -3.180131,5.002086 -8.538235,6.394959 -14.007296,7.603961 -0.747966,-1.179053 -4.88577,-5.14966 -10.380406,-4.452319"
     id="path3" /><path
     style="fill:none;stroke:#ffffff;stroke-linecap:round;stroke-linejoin:round;stroke-dashoffset:0.5"
     d="m 17.860077,31.538982 c -1.876202,-3.469114 -1.869711,-5.07982 -2.076596,-6.90115 7.467629,0.731159 14.792833,-2.288219 22.061229,-6.803543 0.696349,2.492863 1.440022,4.954177 1.750912,7.704012 -5.144599,4.036087 -10.43764,7.735997 -17.809275,6.728501"
     id="path4" /><path
     style="fill:none;stroke:#ffffff;stroke-linecap:round;stroke-linejoin:round;stroke-dashoffset:0.5"
     d="m 12.675901,36.780568 c 4.629598,-3.670811 12.127716,1.160063 13.620686,3.689484"
     id="path5" /><path
     style="fill:none;stroke:#ffffff;stroke-linecap:round;stroke-linejoin:round;stroke-dashoffset:0.5"
     d="M 15.795114,30.575487 C 14.832143,29.745511 12.920548,27.066562 11.606045,30.24075 10.195686,29.928609 9.3396493,30.386361 9.129755,31.741532 8.0275716,31.698575 7.6087934,32.430143 7.5039082,33.517457 6.257123,34.143109 6.6756861,35.268365 6.6784783,36.26889 l 16.6387177,1.465965"
     id="path6" /><path
     style="fill:none;stroke:#ffffff;stroke-linecap:round;stroke-linejoin:round;stroke-dashoffset:0.5"
     d="m 23.036998,33.326534 c -1.600563,1.722677 -1.556729,2.396252 -1.827553,3.270573"
     id="path7" /><path
     style="fill:none;stroke:#ffffff;stroke-linecap:round;stroke-linejoin:round;stroke-dashoffset:0.5"
     d="m 25.663366,34.961821 c -1.050047,1.415391 -1.624533,2.035833 -2.34617,2.773034"
     id="path8" /><path
     style="fill:none;stroke:#ffffff;stroke-linecap:round;stroke-linejoin:round;stroke-dashoffset:0.5"
     d="m 30.581868,35.111267 c 1.766479,0.307825 2.356837,1.826531 1.359768,2.933548 1.32569,0.137528 2.042966,0.881195 0.975508,2.801459 C 34.373523,40.996352 33.888984,42.5 33.342365,42.5 H 29.09015 C 27.8395,42.702964 26.942304,42.002537 27.8395,40.996352 26.949311,41.25981 24.943239,39.915576 26.163366,38.570088 l 2.736086,-3.017202"
     id="path9" /><path
     style="fill:none;stroke:#ffffff;stroke-linecap:round;stroke-linejoin:round;stroke-dashoffset:0.5"
     d="M 40.373762,28.913146 C 40.180521,32.657443 39.324475,36.2893 42.5,38.219646"
     id="path10" /><path
     style="fill:none;stroke:#ffffff;stroke-linecap:round;stroke-linejoin:round;stroke-dashoffset:0.5"
     d="M 24.212611,38.41975 22.123221,40.57113 5.5127671,38.82528"
     id="path11" /><path
     style="fill:none;stroke:#ffffff;stroke-linecap:round;stroke-linejoin:round;stroke-dashoffset:0.5"
     d="m 32.217125,36.11885 c 0.485515,-0.06978 1.423143,0.04253 1.785904,0.44993 2.656836,0.303594 5.939768,1.473354 5.619422,3.253233 -0.469449,0.311109 -1.08673,-0.227821 -1.639873,-0.397955 0.736405,0.992574 0.57022,2.038241 0.53945,3.075942"
     id="path12" /><path
     style="fill:none;stroke:#ffffff;stroke-linecap:round;stroke-linejoin:round;stroke-dashoffset:0.5"
     d="m 32.917144,40.846274 c 1.751196,-1.003133 3.53454,-2.277448 5.065434,-1.422216"
     id="path13" /><path
     style="fill:none;stroke:#ffffff;stroke-linecap:round;stroke-linejoin:round;stroke-dashoffset:0.5"
     d="m 9.0046899,23.187076 3.6712111,1.300678"
     id="path14" /><path
     style="fill:none;stroke:#ffffff;stroke-linecap:round;stroke-linejoin:round;stroke-dashoffset:0.5"
     d="M 9.2298071,26.413757 12.306409,26.213653"
     id="path15" /></svg>

<?xml version="1.0" encoding="UTF-8"?><svg id="a" xmlns="http://www.w3.org/2000/svg" viewBox="0 0 48 48"><defs><style>.q{fill:none;stroke:#fff;stroke-linecap:round;stroke-linejoin:round;}</style></defs><path id="b" class="q" d="M40.5,5.4825H7.5c-1.1046,0-2,.8954-2,2v33c0,1.1046.8954,2,2,2h33c1.1046,0,2-.8954,2-2V7.4825c0-1.1046-.8954-2-2-2Z"/><path id="c" class="q" d="M40.6712,28.4473c.2903-5.0765-.1712-22.9648-15.9083-20.2355-6.249,1.0838-11.7962,4.8437-11.581,11.581.1293,4.047,1.1967,7.9012,3.1016,11.8061"/><path id="d" class="q" d="M40.6712,28.4473c-3.1801,5.0021-8.5382,6.395-14.0073,7.604-.748-1.1791-4.8858-5.1497-10.3804-4.4523"/><path id="e" class="q" d="M17.8601,31.5214c-1.8762-3.4691-1.8697-5.0798-2.0766-6.9011,7.4676.7312,14.7928-2.2882,22.0612-6.8035.6964,2.4929,1.44,4.9542,1.7509,7.704-5.1446,4.0361-10.4376,7.736-17.8093,6.7285"/><path id="f" class="q" d="M12.6759,36.763c4.6296-3.6708,12.1277,1.1601,13.6207,3.6895"/><path id="g" class="q" d="M15.7951,30.5579c-.963-.83-2.8746-3.5089-4.1891-.3347-1.4104-.3121-2.2664.1456-2.4763,1.5008-1.1022-.043-1.521.6886-1.6258,1.7759-1.2468.6257-.8282,1.7509-.8254,2.7514l16.6387,1.466"/><path id="h" class="q" d="M23.037,33.309c-1.6006,1.7227-1.5567,2.3963-1.8276,3.2706"/><path id="i" class="q" d="M25.6634,34.9443c-1.05,1.4154-1.6245,2.0358-2.3462,2.773"/><path id="j" class="q" d="M30.5819,35.0937c1.7665.3078,2.3568,1.8265,1.3598,2.9335,1.3257.1375,2.043.8812.9755,2.8015,1.4564.1501.9718,1.6537.4252,1.6537h-4.2522c-1.2507.203-2.1478-.4975-1.2507-1.5036-.8902.2635-2.8963-1.0808-1.6761-2.4263l2.7361-3.0172"/><path id="k" class="q" d="M40.3738,28.8956c-.1932,3.7443-1.0493,7.3762,2.1262,9.3065"/><path id="l" class="q" d="M24.2126,38.4022l-2.0894,2.1514-16.6105-1.7458"/><path id="m" class="q" d="M32.2171,36.1013c.4855-.0698,1.4231.0425,1.7859.4499,2.6568.3036,5.9398,1.4734,5.6194,3.2532-.4694.3111-1.0867-.2278-1.6399-.398.7364.9926.5702,2.0382.5395,3.0759"/><path id="n" class="q" d="M32.9171,40.8287c1.7512-1.0031,3.5345-2.2774,5.0654-1.4222"/><path id="o" class="q" d="M9.0047,23.1695l3.6712,1.3007"/><path id="p" class="q" d="M9.2298,26.3962l3.0766-.2001"/></svg>
